images-ng/colibre/cutCol.svg

<?xml version="1.0" encoding="UTF-8" standalone="no"?>
<svg
   viewBox="0 0 24 24"
   version="1.1"
   id="svg12"
   sodipodi:docname="lc_cutCol.svg"
   inkscape:version="1.2.1 (9c6d41e410, 2022-07-14)"
   xml:space="preserve"
   xmlns:inkscape="http://www.inkscape.org/namespaces/inkscape"
   xmlns:sodipodi="http://sodipodi.sourceforge.net/DTD/sodipodi-0.dtd"
   xmlns="http://www.w3.org/2000/svg"
   xmlns:svg="http://www.w3.org/2000/svg"><defs
     id="defs16" /><sodipodi:namedview
     id="namedview14"
     pagecolor="#ffffff"
     bordercolor="#000000"
     borderopacity="0.25"
     inkscape:showpageshadow="2"
     inkscape:pageopacity="0.0"
     inkscape:pagecheckerboard="0"
     inkscape:deskcolor="#d1d1d1"
     showgrid="true"
     inkscape:zoom="22.627417"
     inkscape:cx="17.456699"
     inkscape:cy="11.844039"
     inkscape:window-width="1920"
     inkscape:window-height="1031"
     inkscape:window-x="0"
     inkscape:window-y="0"
     inkscape:window-maximized="1"
     inkscape:current-layer="svg12"><inkscape:grid
       type="xygrid"
       id="grid1407" /></sodipodi:namedview><path
     d="m3 2h19v19h-19z"
     fill="#fafafa"
     id="path2" /><path
     id="path4"
     d="M 7 2 L 7 6 L 3 6 L 3 7 L 7 7 L 7 11 L 3 11 L 3 12 L 7 12 L 7 16 L 3 16 L 3 17 L 7 17 L 7 21 L 8 21 L 8 20.5 L 8 17 L 11.5 17 L 12 17 L 12 17.117188 C 12.245676 17.223317 12.477849 17.377808 12.730469 17.480469 L 13 17.017578 L 13 17 L 13.009766 17 L 13.59375 16 L 13 16 L 13 13.238281 L 11.708984 11 L 8 11 L 8 7 L 10.814453 7 C 10.920536 6.8437965 11.032783 6.6969367 11.146484 6.5 A 1.0001687 1.0001687 0 0 1 12.009766 6 A 1.0001687 1.0001687 0 0 1 12.875 6.4960938 L 13.167969 7 L 17 7 L 17 10.158203 L 18 8.4453125 L 18 7 L 18.84375 7 L 19.136719 6.4960938 A 1.0001687 1.0001687 0 0 1 20.865234 6.5 C 20.978936 6.6969365 21.091187 6.8437969 21.197266 7 L 22 7 L 22 6 L 18 6 L 18 2 L 17 2 L 17 6 L 13 6 L 13 2 L 12 2 L 12 6 L 8 6 L 8 2 L 7 2 z M 15.501953 11 L 16.005859 11.863281 L 16.509766 11 L 15.501953 11 z M 20.302734 11 L 19.726562 12 L 22 12 L 22 11 L 20.302734 11 z M 8 12 L 12 12 L 12 16 L 8 16 L 8 12 z M 18 14.990234 L 17.916016 15.136719 L 18 15.28125 L 18 14.990234 z M 18.419922 16 L 19.003906 17 L 20.5 17 L 22 17 L 22 16 L 18.419922 16 z M 17.078125 19.841797 L 17.085938 19.892578 C 17.088737 19.877018 17.088797 19.861223 17.091797 19.845703 L 17.078125 19.841797 z M 17 20.173828 L 17 20.496094 C 17.00026 20.408734 17.030309 20.325261 17.037109 20.238281 L 17 20.173828 z M 17 20.5 L 17 21 L 17.041016 21 C 17.017064 20.835937 17 20.670305 17 20.5 z "
     style="fill:#797774" /><path
     id="path6"
     d="M 3 1 C 2.4460006 1 2 1.4460006 2 2 L 2 21 C 2 21.553999 2.4460006 22 3 22 L 8.3476562 22 C 8.1978835 21.688549 8.0925334 21.352886 8.0410156 21 L 3 21 L 3 2 L 22 2 L 22 17.345703 C 22.374041 17.525514 22.712903 17.768187 23 18.0625 L 23 2 C 23 1.4460006 22.553999 1 22 1 L 3 1 z M 14.958984 21 C 14.907467 21.352886 14.802116 21.688549 14.652344 22 L 17.347656 22 C 17.197884 21.688549 17.092533 21.352886 17.041016 21 L 14.958984 21 z "
     style="fill:#3a3a38" /><path
     id="path8"
     style="fill:#ed3d3b;opacity:0.5"
     d="M 8 2 L 8 20.5 C 8 18.578813 9.5788129 17 11.5 17 C 11.678388 16.999971 11.841978 17.048924 12 17.117188 L 12 11.503906 L 10.84375 9.5 L 10.845703 9.5 C 10.682565 9.2174377 10.553973 8.9736256 10.470703 8.6777344 C 10.387433 8.3818432 10.382273 8.0069062 10.470703 7.7128906 C 10.647572 7.1248594 10.89541 6.9348738 11.146484 6.5 A 1.0001687 1.0001687 0 0 1 12 6.0019531 L 12 2 L 8 2 z M 8 20.5 L 8 21 L 8.0410156 21 C 8.017064 20.835937 8 20.670305 8 20.5 z " /><path
     id="path10"
     style="fill:#ed3d3b"
     d="M 7 1 L 7 22 L 8 22 L 8.3476562 22 C 8.1978835 21.688549 8.0925334 21.352886 8.0410156 21 L 8 21 L 8 20.5 L 8 17 L 11.5 17 L 12 17 L 12 17.117188 C 12.245676 17.223317 12.477849 17.377808 12.730469 17.480469 L 13 17.017578 L 13 13.238281 L 11.708984 11 L 8 11 L 8 7 L 10.814453 7 C 10.920536 6.8437965 11.032783 6.6969367 11.146484 6.5 A 1.0001687 1.0001687 0 0 1 12.009766 6 A 1.0001687 1.0001687 0 0 1 12.875 6.4960938 L 13 6.7109375 L 13 1 L 12 1 L 8 1 L 7 1 z M 8 2 L 12 2 L 12 6 L 8 6 L 8 2 z M 8 12 L 12 12 L 12 16 L 8 16 L 8 12 z " /><g
     id="g1405"
     transform="translate(8,7)"><path
       d="M 4.0117188,0 C 3.4343687,1 3.1335875,1 3.7109375,2 l 3.5410156,6.140625 -2.0566406,3.525391 c 0.387581,0.357618 0.6521469,0.828641 0.7558594,1.345703 l 1.1621093,-2.013672 c 0.7804192,-0.01 0.8787974,-0.774603 1.3339844,-0.785156 l 1.6035154,2.78125 c -0.0023,0.01134 -0.0017,0.02375 -0.0039,0.03516 0.101315,-0.527403 0.369773,-1.008161 0.765625,-1.371094 L 8.7597656,8.140625 12.300781,2 C 12.878131,1 12.57735,1 12,0 L 8.0058594,6.8476562 Z M 8,8 C 8.277,8 8.5,8.223 8.5,8.5 8.5,8.777 8.277,9 8,9 7.723,9 7.5,8.777 7.5,8.5 7.5,8.223 7.723,8 8,8 Z"
       fill="#3a3a38"
       id="path1387" /><g
       fill="#1e8bcd"
       id="g1393"><path
         d="M 3.5,11 A 2.5,2.5 0 0 0 1,13.5 2.5,2.5 0 0 0 3.5,16 2.5,2.5 0 0 0 6,13.5 2.5,2.5 0 0 0 3.5,11 Z m 0,1 A 1.5,1.5 0 0 1 5,13.5 1.5,1.5 0 0 1 3.5,15 1.5,1.5 0 0 1 2,13.5 1.5,1.5 0 0 1 3.5,12 Z"
         id="path1389" /><path
         d="M 12.5,11 A 2.5,2.5 0 0 0 10,13.5 2.5,2.5 0 0 0 12.5,16 2.5,2.5 0 0 0 15,13.5 2.5,2.5 0 0 0 12.5,11 Z m 0,1 A 1.5,1.5 0 0 1 14,13.5 1.5,1.5 0 0 1 12.5,15 1.5,1.5 0 0 1 11,13.5 1.5,1.5 0 0 1 12.5,12 Z"
         id="path1391" /></g></g></svg>

<svg version="1.1" viewBox="0 0 24 24" xmlns="http://www.w3.org/2000/svg"><path d="m3 2h19v19h-19z" fill="#fafafa"/><path d="m7 2v4h-4v1h4v4h-4v1h4v4h-4v1h4v4h1v-0.5-3.5h3.5 0.5v0.11719c0.24568 0.10613 0.47785 0.26062 0.73047 0.36328l0.26953-0.46289v-0.017578h0.009766l0.58398-1h-0.59375v-2.7617l-1.291-2.2383h-3.709v-4h2.8145c0.10608-0.1562 0.21833-0.30306 0.33203-0.5a1.0002 1.0002 0 0 1 0.86328-0.5 1.0002 1.0002 0 0 1 0.86523 0.49609l0.29297 0.50391h3.832v3.1582l1-1.7129v-1.4453h0.84375l0.29297-0.50391a1.0002 1.0002 0 0 1 1.7285 0.0039062c0.1137 0.19694 0.22595 0.3438 0.33203 0.5h0.80273v-1h-4v-4h-1v4h-4v-4h-1v4h-4v-4h-1zm8.502 9 0.50391 0.86328 0.50391-0.86328h-1.0078zm4.8008 0-0.57617 1h2.2734v-1h-1.6973zm-12.303 1h4v4h-4v-4zm10 2.9902-0.083984 0.14648 0.083984 0.14453v-0.29102zm0.41992 1.0098 0.58398 1h1.4961 1.5v-1h-3.5801zm-1.3418 3.8418 0.007813 0.050781c0.002799-0.01556 0.002859-0.031355 0.005859-0.046875l-0.013672-0.003906zm-0.078125 0.33203v0.32227c2.6e-4 -0.08736 0.030309-0.17083 0.037109-0.25781l-0.037109-0.064453zm0 0.32617v0.5h0.041016c-0.023952-0.16406-0.041016-0.3297-0.041016-0.5z" fill="#797774"/><path d="m3 1c-0.554 0-1 0.446-1 1v19c0 0.554 0.446 1 1 1h5.3477c-0.14977-0.31145-0.25512-0.64711-0.30664-1h-5.041v-19h19v15.346c0.37404 0.17981 0.7129 0.42248 1 0.7168v-16.062c0-0.554-0.446-1-1-1h-19zm11.959 20c-0.051517 0.35289-0.15687 0.68855-0.30664 1h2.6953c-0.14977-0.31145-0.25512-0.64711-0.30664-1h-2.082z" fill="#3a3a38"/><path d="m8 2v18.5c0-1.9212 1.5788-3.5 3.5-3.5 0.17839-2.9e-5 0.34198 0.048924 0.5 0.11719v-5.6133l-1.1562-2.0039h0.001953c-0.16314-0.28256-0.29173-0.52637-0.375-0.82227s-0.08843-0.67083 0-0.96484c0.17687-0.58803 0.42471-0.77802 0.67578-1.2129a1.0002 1.0002 0 0 1 0.85352-0.49805v-4.002h-4zm0 18.5v0.5h0.041016c-0.023952-0.16406-0.041016-0.3297-0.041016-0.5z" fill="#ed3d3b" opacity=".5"/><path d="m7 1v21h1 0.34766c-0.14977-0.31145-0.25512-0.64711-0.30664-1h-0.041016v-0.5-3.5h3.5 0.5v0.11719c0.24568 0.10613 0.47785 0.26062 0.73047 0.36328l0.26953-0.46289v-3.7793l-1.291-2.2383h-3.709v-4h2.8145c0.10608-0.1562 0.21833-0.30306 0.33203-0.5a1.0002 1.0002 0 0 1 0.86328-0.5 1.0002 1.0002 0 0 1 0.86523 0.49609l0.125 0.21484v-5.7109h-1-4-1zm1 1h4v4h-4v-4zm0 10h4v4h-4v-4z" fill="#ed3d3b"/><g transform="translate(8,7)"><path d="m4.0117 0c-0.57735 1-0.87813 1-0.30078 2l3.541 6.1406-2.0566 3.5254c0.38758 0.35762 0.65215 0.82864 0.75586 1.3457l1.1621-2.0137c0.78042-0.01 0.8788-0.7746 1.334-0.78516l1.6035 2.7812c-0.0023 0.01134-0.0017 0.02375-0.0039 0.03516 0.10132-0.5274 0.36977-1.0082 0.76562-1.3711l-2.0527-3.5176 3.541-6.1406c0.57735-1 0.27657-1-0.30078-2l-3.9941 6.8477zm3.9883 8c0.277 0 0.5 0.223 0.5 0.5s-0.223 0.5-0.5 0.5-0.5-0.223-0.5-0.5 0.223-0.5 0.5-0.5z" fill="#3a3a38"/><g fill="#1e8bcd"><path d="m3.5 11a2.5 2.5 0 0 0-2.5 2.5 2.5 2.5 0 0 0 2.5 2.5 2.5 2.5 0 0 0 2.5-2.5 2.5 2.5 0 0 0-2.5-2.5zm0 1a1.5 1.5 0 0 1 1.5 1.5 1.5 1.5 0 0 1-1.5 1.5 1.5 1.5 0 0 1-1.5-1.5 1.5 1.5 0 0 1 1.5-1.5z"/><path d="m12.5 11a2.5 2.5 0 0 0-2.5 2.5 2.5 2.5 0 0 0 2.5 2.5 2.5 2.5 0 0 0 2.5-2.5 2.5 2.5 0 0 0-2.5-2.5zm0 1a1.5 1.5 0 0 1 1.5 1.5 1.5 1.5 0 0 1-1.5 1.5 1.5 1.5 0 0 1-1.5-1.5 1.5 1.5 0 0 1 1.5-1.5z"/></g></g></svg>
